X: 12
T:Going to the Well for Water
T:Kaiser, The
M:12/8
L:1/8
R:Slide
K:D
A2f A2f A2f fed|B2g B2g B2g gfe|!
cde A2A ABA a2f|g2e c2e d3 dcB||!
"var."Aff Aff Aff fed|"var."Bgg Bgg Bgg gfe|!
cde A2A ABA a2f|g2e c2e d3 d2e|]!
f3 fed e3 edc|d3 dcB c3 cBA|!
GBB GBB FAA FAA|EDE e2d cBc d2e||!
~f3 fed ~e3 edc|~d3 dcB ~c3 cBA|!
GBB GBB FAA FAA|EDE e2d cBc d2B|]!
